src/assets/x.svg

<svg width="14" height="14" viewBox="0 0 14 14" fill="none" xmlns="http://www.w3.org/2000/svg">
<path d="M4.59998 10.3333L6.99998 7.93334L9.39998 10.3333L10.3333 9.40001L7.93331 7.00001L10.3333 4.60001L9.39998 3.66668L6.99998 6.06668L4.59998 3.66668L3.66665 4.60001L6.06665 7.00001L3.66665 9.40001L4.59998 10.3333ZM6.99998 13.6667C6.07776 13.6667 5.21109 13.4917 4.39998 13.1417C3.58887 12.7917 2.88331 12.3167 2.28331 11.7167C1.68331 11.1167 1.20831 10.4111 0.858313 9.60001C0.508313 8.7889 0.333313 7.92223 0.333313 7.00001C0.333313 6.07779 0.508313 5.21112 0.858313 4.40001C1.20831 3.5889 1.68331 2.88334 2.28331 2.28334C2.88331 1.68334 3.58887 1.20834 4.39998 0.858343C5.21109 0.508343 6.07776 0.333344 6.99998 0.333344C7.9222 0.333344 8.78887 0.508343 9.59998 0.858343C10.4111 1.20834 11.1166 1.68334 11.7166 2.28334C12.3166 2.88334 12.7916 3.5889 13.1416 4.40001C13.4916 5.21112 13.6666 6.07779 13.6666 7.00001C13.6666 7.92223 13.4916 8.7889 13.1416 9.60001C12.7916 10.4111 12.3166 11.1167 11.7166 11.7167C11.1166 12.3167 10.4111 12.7917 9.59998 13.1417C8.78887 13.4917 7.9222 13.6667 6.99998 13.6667Z" fill="#7F858D"/>
</svg>

<svg width="14" height="14" fill="none" xmlns="http://www.w3.org/2000/svg">
  <path
    d="M4.6 10.333l2.4-2.4 2.4 2.4.933-.933-2.4-2.4 2.4-2.4-.933-.933-2.4 2.4-2.4-2.4-.933.933 2.4 2.4-2.4 2.4.933.933zM7 13.667a6.492 6.492 0 01-2.6-.525 6.732 6.732 0 01-2.117-1.425A6.733 6.733 0 01.858 9.6 6.492 6.492 0 01.333 7c0-.922.175-1.789.525-2.6a6.732 6.732 0 011.425-2.117c.6-.6 1.306-1.075 2.117-1.425A6.492 6.492 0 017 .333c.922 0 1.789.175 2.6.525.811.35 1.517.825 2.117 1.425.6.6 1.075 1.306 1.425 2.117.35.811.525 1.678.525 2.6 0 .922-.175 1.789-.525 2.6a6.733 6.733 0 01-1.425 2.117c-.6.6-1.306 1.075-2.117 1.425a6.492 6.492 0 01-2.6.525z"
    fill="currentColor" />
</svg>
